X:4
T:Schottisch GC oct chords (Anm)
M:2/4
L:1/16
K:Gmaj%%MIDI gchordon
TD2 |: "G"B,2B,2 D2TD2 | "D7""_c"C2C2D4 | "_#"F2F2 C2"_ ="C2 | "G"B,CDE D2TD2 | B,2B,2 D2TD2 | "D7"C2C2D4 | \
"_#"F2FE D"_c"CB,"_ a ="A, |1
 "G"G,2G2 G2D2 :|2 "G"G,2G2 G2z2 || "D7"D3D E2D2 | "G"B4 AGFE | "D7"D2DD "_c"c3"_#"F | "G"A2G2 F2E2 | \
"D7"D3D E2D2 | "G"B4 AGFE |
 "D7"D2DD "_c"c3"_ # ="F | "G"G2F2 G2z2 || [K:Cmaj] "C"C3C E2C2 | A6G2 | E2G2 C2G2 | \
"G7""_h"B,2G2"_f"F4 | "_d"D3D F2D2 | "_h"B6"_a"A2 |
 GGG2 FF"_ ="F2 | "C"E2c2 B2A2 | C3C E2C2 | A6G2 | \
E2G2 C2G2 | "G7""_h"B,2G2 "_f"F4 | "(Dm)""_d"D3D "_f"F2D2 | "G7""_h"B6"_ a ="A2 | GGG2 BBB2 | "C"c2c2 c2z2 |] 

